packages/icons/svg/Outline/color-picker.svg

<svg fill="none" height="24" viewBox="0 0 24 24" width="24" xmlns="http://www.w3.org/2000/svg"><path clip-rule="evenodd" d="m16.0557 10.6417-2.696-2.69601 1.912-1.911 2.694 2.694zm-6.97696 6.9829-2.976.271.264-2.956 5.57896-5.58 2.696 2.696zm10.32396-10.28807-2.74-2.739c-.767-.768-1.986-.796-2.714-.068l-2.003 2.002-1.239-1.239c-.39-.39-1.02299-.39-1.41399 0-.39.391-.39 1.024 0 1.414l1.23899 1.239-5.57999 5.57997c-.325.325-.527.757-.569 1.214l-.379 4.17c-.026.295.079.587.289.797.189.189.444.293.707.293.031 0 .061-.001.091-.004l4.17-.378c.457-.042.88899-.245 1.21399-.57l5.58-5.579 1.238 1.238c.196.196.451.293.707.293s.512-.097.707-.293c.391-.39.391-1.023 0-1.414l-1.238-1.238 2.002-2.003c.73-.72897.699-1.94697-.068-2.71497z" fill="#6b7280" fill-rule="evenodd"/></svg>

<svg width="24" height="24" viewBox="0 0 24 24" fill="none" xmlns="http://www.w3.org/2000/svg">
<g id="Icon/Outline/color-picker">
<path id="Mask" fill-rule="evenodd" clip-rule="evenodd" d="M16.0557 10.6416L13.3597 7.94561L15.2717 6.03461L17.9657 8.72861L16.0557 10.6416ZM9.07865 17.6246L6.10265 17.8956L6.36665 14.9396L11.9457 9.35961L14.6417 12.0556L9.07865 17.6246ZM19.4027 7.33661L16.6627 4.59761C15.8957 3.82961 14.6767 3.80161 13.9487 4.52961L11.9457 6.53161L10.7067 5.29261C10.3167 4.90261 9.68365 4.90261 9.29265 5.29261C8.90265 5.68361 8.90265 6.31661 9.29265 6.70661L10.5317 7.94561L4.95165 13.5256C4.62665 13.8506 4.42465 14.2826 4.38265 14.7396L4.00365 18.9096C3.97765 19.2046 4.08265 19.4966 4.29265 19.7066C4.48165 19.8956 4.73665 19.9996 4.99965 19.9996C5.03065 19.9996 5.06065 19.9986 5.09065 19.9956L9.26065 19.6176C9.71765 19.5756 10.1497 19.3726 10.4747 19.0476L16.0547 13.4686L17.2927 14.7066C17.4887 14.9026 17.7437 14.9996 17.9997 14.9996C18.2557 14.9996 18.5117 14.9026 18.7067 14.7066C19.0977 14.3166 19.0977 13.6836 18.7067 13.2926L17.4687 12.0546L19.4707 10.0516C20.2007 9.32261 20.1697 8.10461 19.4027 7.33661Z" fill="#000000"/>
</g>
</svg>
